app/assets/images/icons/active/sa.svg

<svg width="32" height="232" viewBox="0 0 32 232" xmlns="http://www.w3.org/2000/svg" xmlns:sketch="http://www.bohemiancoding.com/sketch/ns"><title>sa</title><g sketch:type="MSPage" fill="none"><path d="M15.972 120c4.476 0 8.267 1.553 11.371 4.657 3.105 3.086 4.658 6.867 4.658 11.343 0 4.477-1.524 8.228-4.572 11.257-3.219 3.162-7.038 4.743-11.457 4.743-4.324 0-8.076-1.571-11.257-4.714-3.143-3.143-4.715-6.905-4.715-11.286 0-4.362 1.572-8.143 4.715-11.343 3.105-3.104 6.857-4.657 11.257-4.657zm.057 2.886c-3.638 0-6.714 1.285-9.229 3.857-2.609 2.648-3.913 5.734-3.913 9.257 0 3.562 1.294 6.628 3.885 9.2 2.591 2.591 5.676 3.885 9.257 3.885 3.562 0 6.667-1.303 9.314-3.913 2.515-2.438 3.772-5.496 3.772-9.172 0-3.657-1.277-6.743-3.829-9.257-2.533-2.572-5.619-3.857-9.257-3.857zm-7.143 10.857c.305-1.962 1.096-3.481 2.372-4.556 1.276-1.077 2.828-1.616 4.657-1.616 2.514 0 4.514.811 5.999 2.429 1.486 1.619 2.229 3.696 2.229 6.229 0 2.456-.772 4.5-2.313 6.129-1.543 1.628-3.543 2.442-6.001 2.442-1.81 0-3.372-.543-4.686-1.629-1.313-1.085-2.104-2.629-2.371-4.628h4.028c.096 1.942 1.267 2.914 3.515 2.914 1.123 0 2.028-.485 2.715-1.457.685-.971 1.027-2.267 1.027-3.886 0-1.695-.313-2.985-.942-3.871-.628-.886-1.533-1.329-2.714-1.329-2.134 0-3.334.944-3.601 2.829h1.172l-3.172 3.171-3.171-3.171h1.257zm0 0" fill="#206FAC" sketch:type="MSShapeGroup"/><path d="M15.972 80c4.476 0 8.267 1.553 11.371 4.657 3.105 3.086 4.658 6.867 4.658 11.343 0 4.477-1.524 8.228-4.572 11.257-3.219 3.162-7.038 4.743-11.457 4.743-4.324 0-8.076-1.571-11.257-4.714-3.143-3.143-4.715-6.905-4.715-11.286 0-4.362 1.572-8.143 4.715-11.343 3.105-3.104 6.857-4.657 11.257-4.657zm.057 2.886c-3.638 0-6.714 1.285-9.229 3.857-2.609 2.648-3.913 5.734-3.913 9.257 0 3.562 1.294 6.628 3.885 9.2 2.591 2.591 5.676 3.885 9.257 3.885 3.562 0 6.667-1.303 9.314-3.913 2.515-2.438 3.772-5.496 3.772-9.172 0-3.657-1.277-6.743-3.829-9.257-2.533-2.572-5.619-3.857-9.257-3.857zm-7.143 10.857c.305-1.962 1.096-3.481 2.372-4.556 1.276-1.077 2.828-1.616 4.657-1.616 2.514 0 4.514.811 5.999 2.429 1.486 1.619 2.229 3.696 2.229 6.229 0 2.456-.772 4.5-2.313 6.129-1.543 1.628-3.543 2.442-6.001 2.442-1.81 0-3.372-.543-4.686-1.629-1.313-1.085-2.104-2.629-2.371-4.628h4.028c.096 1.942 1.267 2.914 3.515 2.914 1.123 0 2.028-.485 2.715-1.457.685-.971 1.027-2.267 1.027-3.886 0-1.695-.313-2.985-.942-3.871-.628-.886-1.533-1.329-2.714-1.329-2.134 0-3.334.944-3.601 2.829h1.172l-3.172 3.171-3.171-3.171h1.257zm0 0" fill="#fff" sketch:type="MSShapeGroup"/><path d="M15.972 40c4.476 0 8.267 1.553 11.371 4.657 3.105 3.086 4.658 6.867 4.658 11.343 0 4.477-1.524 8.228-4.572 11.257-3.219 3.162-7.038 4.743-11.457 4.743-4.324 0-8.076-1.571-11.257-4.714-3.143-3.143-4.715-6.905-4.715-11.286 0-4.362 1.572-8.143 4.715-11.343 3.105-3.104 6.857-4.657 11.257-4.657zm.057 2.886c-3.638 0-6.714 1.285-9.229 3.857-2.609 2.648-3.913 5.734-3.913 9.257 0 3.562 1.294 6.628 3.885 9.2 2.591 2.591 5.676 3.885 9.257 3.885 3.562 0 6.667-1.303 9.314-3.913 2.515-2.438 3.772-5.496 3.772-9.172 0-3.657-1.277-6.743-3.829-9.257-2.533-2.572-5.619-3.857-9.257-3.857zm-7.143 10.857c.305-1.962 1.096-3.481 2.372-4.556 1.276-1.077 2.828-1.616 4.657-1.616 2.514 0 4.514.811 5.999 2.429 1.486 1.619 2.229 3.696 2.229 6.229 0 2.456-.772 4.5-2.313 6.129-1.543 1.628-3.543 2.442-6.001 2.442-1.81 0-3.372-.543-4.686-1.629-1.313-1.085-2.104-2.629-2.371-4.628h4.028c.096 1.942 1.267 2.914 3.515 2.914 1.123 0 2.028-.485 2.715-1.457.685-.971 1.027-2.267 1.027-3.886 0-1.695-.313-2.985-.942-3.871-.628-.886-1.533-1.329-2.714-1.329-2.134 0-3.334.944-3.601 2.829h1.172l-3.172 3.171-3.171-3.171h1.257zm0 0" fill="#67737B" sketch:type="MSShapeGroup"/><path d="M15.972 0c4.476 0 8.267 1.553 11.371 4.657 3.105 3.086 4.658 6.867 4.658 11.343 0 4.477-1.524 8.228-4.572 11.257-3.219 3.162-7.038 4.743-11.457 4.743-4.324 0-8.076-1.571-11.257-4.714-3.143-3.143-4.715-6.905-4.715-11.286 0-4.362 1.572-8.143 4.715-11.343 3.105-3.104 6.857-4.657 11.257-4.657zm.057 2.886c-3.638 0-6.714 1.285-9.229 3.857-2.609 2.648-3.913 5.734-3.913 9.257 0 3.562 1.294 6.628 3.885 9.2 2.591 2.591 5.676 3.885 9.257 3.885 3.562 0 6.667-1.303 9.314-3.913 2.515-2.438 3.772-5.496 3.772-9.172 0-3.657-1.277-6.743-3.829-9.257-2.533-2.572-5.619-3.857-9.257-3.857zm-7.143 10.857c.305-1.962 1.096-3.481 2.372-4.556 1.276-1.077 2.828-1.616 4.657-1.616 2.514 0 4.514.811 5.999 2.429 1.486 1.619 2.229 3.696 2.229 6.229 0 2.456-.772 4.5-2.313 6.129-1.543 1.628-3.543 2.442-6.001 2.442-1.81 0-3.372-.543-4.686-1.629-1.313-1.085-2.104-2.629-2.371-4.628h4.028c.096 1.942 1.267 2.914 3.515 2.914 1.123 0 2.028-.485 2.715-1.457.685-.971 1.027-2.267 1.027-3.886 0-1.695-.313-2.985-.942-3.871-.628-.886-1.533-1.329-2.714-1.329-2.134 0-3.334.944-3.601 2.829h1.172l-3.172 3.171-3.171-3.171h1.257zm0 0" fill="#3B444F" sketch:type="MSShapeGroup"/></g></svg>

<?xml version="1.0" encoding="UTF-8" standalone="no"?>
<svg width="32px" height="232px" viewBox="0 0 32 232" version="1.1" xmlns="http://www.w3.org/2000/svg" xmlns:xlink="http://www.w3.org/1999/xlink" xmlns:sketch="http://www.bohemiancoding.com/sketch/ns">
    <title>sa</title>
    <description>Created with Sketch (http://www.bohemiancoding.com/sketch)</description>
    <defs></defs>
    <g id="Creative-commons" stroke="none" stroke-width="1" fill="none" fill-rule="evenodd" sketch:type="MSPage">
        <path d="M15.972,120 C20.448,120 24.239,121.553 27.343,124.657 C30.448,127.743 32.001,131.524 32.001,136 C32.001,140.477 30.477,144.228 27.429,147.257 C24.21,150.419 20.391,152 15.972,152 C11.648,152 7.896,150.429 4.715,147.286 C1.572,144.143 0,140.381 0,136 C0,131.638 1.572,127.857 4.715,124.657 C7.82,121.553 11.572,120 15.972,120 C15.972,120 11.572,120 15.972,120 L15.972,120 L15.972,120 Z M16.029,122.886 C12.391,122.886 9.315,124.171 6.8,126.743 C4.191,129.391 2.887,132.477 2.887,136 C2.887,139.562 4.181,142.628 6.772,145.2 C9.363,147.791 12.448,149.085 16.029,149.085 C19.591,149.085 22.696,147.782 25.343,145.172 C27.858,142.734 29.115,139.676 29.115,136 C29.115,132.343 27.838,129.257 25.286,126.743 C22.753,124.171 19.667,122.886 16.029,122.886 L16.029,122.886 L16.029,122.886 L16.029,122.886 Z M8.886,133.743 C9.191,131.781 9.982,130.262 11.258,129.187 C12.534,128.11 14.086,127.571 15.915,127.571 C18.429,127.571 20.429,128.382 21.914,130 C23.4,131.619 24.143,133.696 24.143,136.229 C24.143,138.685 23.371,140.729 21.83,142.358 C20.287,143.986 18.287,144.8 15.829,144.8 C14.019,144.8 12.457,144.257 11.143,143.171 C9.83,142.086 9.039,140.542 8.772,138.543 L12.8,138.543 C12.896,140.485 14.067,141.457 16.315,141.457 C17.438,141.457 18.343,140.972 19.03,140 C19.715,139.029 20.057,137.733 20.057,136.114 C20.057,134.419 19.744,133.129 19.115,132.243 C18.487,131.357 17.582,130.914 16.401,130.914 C14.267,130.914 13.067,131.858 12.8,133.743 L13.972,133.743 L10.8,136.914 L7.629,133.743 L8.886,133.743 L8.886,133.743 Z M8.886,133.743" id="sa--lp--blue" fill="#206FAC" sketch:type="MSShapeGroup"></path>
        <path d="M15.972,80 C20.448,80 24.239,81.553 27.343,84.657 C30.448,87.743 32.001,91.524 32.001,96 C32.001,100.477 30.477,104.228 27.429,107.257 C24.21,110.419 20.391,112 15.972,112 C11.648,112 7.896,110.429 4.715,107.286 C1.572,104.143 0,100.381 0,96 C0,91.638 1.572,87.857 4.715,84.657 C7.82,81.553 11.572,80 15.972,80 C15.972,80 11.572,80 15.972,80 L15.972,80 L15.972,80 Z M16.029,82.886 C12.391,82.886 9.315,84.171 6.8,86.743 C4.191,89.391 2.887,92.477 2.887,96 C2.887,99.562 4.181,102.628 6.772,105.2 C9.363,107.791 12.448,109.085 16.029,109.085 C19.591,109.085 22.696,107.782 25.343,105.172 C27.858,102.734 29.115,99.676 29.115,96 C29.115,92.343 27.838,89.257 25.286,86.743 C22.753,84.171 19.667,82.886 16.029,82.886 L16.029,82.886 L16.029,82.886 L16.029,82.886 Z M8.886,93.743 C9.191,91.781 9.982,90.262 11.258,89.187 C12.534,88.11 14.086,87.571 15.915,87.571 C18.429,87.571 20.429,88.382 21.914,90 C23.4,91.619 24.143,93.696 24.143,96.229 C24.143,98.685 23.371,100.729 21.83,102.358 C20.287,103.986 18.287,104.8 15.829,104.8 C14.019,104.8 12.457,104.257 11.143,103.171 C9.83,102.086 9.039,100.542 8.772,98.543 L12.8,98.543 C12.896,100.485 14.067,101.457 16.315,101.457 C17.438,101.457 18.343,100.972 19.03,100 C19.715,99.029 20.057,97.733 20.057,96.114 C20.057,94.419 19.744,93.129 19.115,92.243 C18.487,91.357 17.582,90.914 16.401,90.914 C14.267,90.914 13.067,91.858 12.8,93.743 L13.972,93.743 L10.8,96.914 L7.629,93.743 L8.886,93.743 L8.886,93.743 Z M8.886,93.743" id="sa--white" fill="#FFFFFF" sketch:type="MSShapeGroup"></path>
        <path d="M15.972,40 C20.448,40 24.239,41.553 27.343,44.657 C30.448,47.743 32.001,51.524 32.001,56 C32.001,60.477 30.477,64.228 27.429,67.257 C24.21,70.419 20.391,72 15.972,72 C11.648,72 7.896,70.429 4.715,67.286 C1.572,64.143 0,60.381 0,56 C0,51.638 1.572,47.857 4.715,44.657 C7.82,41.553 11.572,40 15.972,40 C15.972,40 11.572,40 15.972,40 L15.972,40 L15.972,40 Z M16.029,42.886 C12.391,42.886 9.315,44.171 6.8,46.743 C4.191,49.391 2.887,52.477 2.887,56 C2.887,59.562 4.181,62.628 6.772,65.2 C9.363,67.791 12.448,69.085 16.029,69.085 C19.591,69.085 22.696,67.782 25.343,65.172 C27.858,62.734 29.115,59.676 29.115,56 C29.115,52.343 27.838,49.257 25.286,46.743 C22.753,44.171 19.667,42.886 16.029,42.886 L16.029,42.886 L16.029,42.886 L16.029,42.886 Z M8.886,53.743 C9.191,51.781 9.982,50.262 11.258,49.187 C12.534,48.11 14.086,47.571 15.915,47.571 C18.429,47.571 20.429,48.382 21.914,50 C23.4,51.619 24.143,53.696 24.143,56.229 C24.143,58.685 23.371,60.729 21.83,62.358 C20.287,63.986 18.287,64.8 15.829,64.8 C14.019,64.8 12.457,64.257 11.143,63.171 C9.83,62.086 9.039,60.542 8.772,58.543 L12.8,58.543 C12.896,60.485 14.067,61.457 16.315,61.457 C17.438,61.457 18.343,60.972 19.03,60 C19.715,59.029 20.057,57.733 20.057,56.114 C20.057,54.419 19.744,53.129 19.115,52.243 C18.487,51.357 17.582,50.914 16.401,50.914 C14.267,50.914 13.067,51.858 12.8,53.743 L13.972,53.743 L10.8,56.914 L7.629,53.743 L8.886,53.743 L8.886,53.743 Z M8.886,53.743" id="sa--light--grey" fill="#67737B" sketch:type="MSShapeGroup"></path>
        <path d="M15.972,0 C20.448,0 24.239,1.553 27.343,4.657 C30.448,7.743 32.001,11.524 32.001,16 C32.001,20.477 30.477,24.228 27.429,27.257 C24.21,30.419 20.391,32 15.972,32 C11.648,32 7.896,30.429 4.715,27.286 C1.572,24.143 0,20.381 0,16 C0,11.638 1.572,7.857 4.715,4.657 C7.82,1.553 11.572,0 15.972,0 C15.972,0 11.572,0 15.972,0 L15.972,0 L15.972,0 Z M16.029,2.886 C12.391,2.886 9.315,4.171 6.8,6.743 C4.191,9.391 2.887,12.477 2.887,16 C2.887,19.562 4.181,22.628 6.772,25.2 C9.363,27.791 12.448,29.085 16.029,29.085 C19.591,29.085 22.696,27.782 25.343,25.172 C27.858,22.734 29.115,19.676 29.115,16 C29.115,12.343 27.838,9.257 25.286,6.743 C22.753,4.171 19.667,2.886 16.029,2.886 L16.029,2.886 L16.029,2.886 L16.029,2.886 Z M8.886,13.743 C9.191,11.781 9.982,10.262 11.258,9.187 C12.534,8.11 14.086,7.571 15.915,7.571 C18.429,7.571 20.429,8.382 21.914,10 C23.4,11.619 24.143,13.696 24.143,16.229 C24.143,18.685 23.371,20.729 21.83,22.358 C20.287,23.986 18.287,24.8 15.829,24.8 C14.019,24.8 12.457,24.257 11.143,23.171 C9.83,22.086 9.039,20.542 8.772,18.543 L12.8,18.543 C12.896,20.485 14.067,21.457 16.315,21.457 C17.438,21.457 18.343,20.972 19.03,20 C19.715,19.029 20.057,17.733 20.057,16.114 C20.057,14.419 19.744,13.129 19.115,12.243 C18.487,11.357 17.582,10.914 16.401,10.914 C14.267,10.914 13.067,11.858 12.8,13.743 L13.972,13.743 L10.8,16.914 L7.629,13.743 L8.886,13.743 L8.886,13.743 Z M8.886,13.743" id="sa--dark--grey" fill="#3B444F" sketch:type="MSShapeGroup"></path>
    </g>
</svg>
